X: 17046
T: Heather Breeze, The
R: reel
M: 4/4
K: Gmajor
g2 gf g2ag|fdde fga2|defg abag|fdcA BGGF|
g2 gf g2ag|fdde fga2|bgaf gbag|fdcA BGGF|

